!!!OTL: Annie
!!!ONM: 15.
**kern
*clefG2
*k[f#]
*G:
*M3/4
*MM84
{8.g
16a
=1
8b
8a
4g
8f#
8g
=2
8a
8g
4e
8g
8e
=3
4d
4d
4f#
=4
4.e
8r}
{(8g
8a)
=5
4b
4g
4g
=6
(8a
8g)
4e
4a
=7
4e
4e
4a
=8
4.e
8r}
{8g
8a
=9
(8b
8a)
4g
8f#
8g
=10
(8a
8g)
4e
8g
8e
=11
4d
4d
4f#
=12
4.e
8r}
{8g
8a
=13
4b
4g
4g
=14
(8a
8g)
4e
4d
=15
4e
4g
4f#
=16
4.g
8r}
==
*-
!!!CNT: Folksongs of Maritime Canada
!!!MRD: 1928///-1932///
!!!OCL: Helen Creighton
!!!YOR: Songs and Ballads from Nova Scotia
!!!PPR: J.M. Dent & Sons, Limited
!!!PPP: Toronto, Canada
!!!PDT: 1932///
!!!reprint: Dover Publications, 1992: ISBN 0-486-21703-5
!!!ENC1: Craig Stuart Sapp (music and bibliographic data)                       
!!!ENC2: Marcus Pearce (phrase markings and key designations)                   
!!!ENC3: Darrell Conklin (phrase markings and key designations)   
!!!END: 2002/04/10/
!!!EEV: 2004/06/05
!!!MPN: Mr. Richard Hartlan
!!!PPG: 32
!!!EFL: 15/152
!!!ARE: Canada; Nova Scotia
!!!verses: 4
!!!VTS: 2902211493
